storage/app/icons/phosphoricons/bold/castle-turret-bold.svg

<svg xmlns="http://www.w3.org/2000/svg" fill="currentColor" viewBox="0 0 256 256"><path d="M216 212h-12v-95l10.14-10.14A19.86 19.86 0 0 0 220 92.69V48a20 20 0 0 0-20-20H56a20 20 0 0 0-20 20v44.69a19.86 19.86 0 0 0 5.86 14.14L52 117v95H40a12 12 0 0 0 0 24h176a12 12 0 0 0 0-24M72.49 103.51 60 91V52h28v24a12 12 0 0 0 24 0V52h32v24a12 12 0 0 0 24 0V52h28v39l-12.49 12.48A12 12 0 0 0 180 112v100h-16v-44a36 36 0 0 0-72 0v44H76V112a12 12 0 0 0-3.51-8.49M140 212h-24v-44a12 12 0 0 1 24 0Z"/></svg>

<svg xmlns="http://www.w3.org/2000/svg" viewBox="0 0 256 256" fill="currentColor"><path d="M216,212H204V117l10.14-10.14A19.86,19.86,0,0,0,220,92.69V48a20,20,0,0,0-20-20H56A20,20,0,0,0,36,48V92.69a19.86,19.86,0,0,0,5.86,14.14L52,117v95H40a12,12,0,0,0,0,24H216a12,12,0,0,0,0-24ZM72.49,103.51,60,91V52H88V76a12,12,0,0,0,24,0V52h32V76a12,12,0,0,0,24,0V52h28V91l-12.49,12.48A12,12,0,0,0,180,112V212H164V168a36,36,0,0,0-72,0v44H76V112A12,12,0,0,0,72.49,103.51ZM140,212H116V168a12,12,0,0,1,24,0Z"/></svg>
